src/assets/icons/0-icon-typescript.svg

<svg width="65" height="64" viewBox="0 0 65 64" fill="none" xmlns="http://www.w3.org/2000/svg">
<g clip-path="url(#clip0_408_824)">
<path d="M61.0881 0H3.08813C1.43128 0 0.0881348 1.34315 0.0881348 3V61C0.0881348 62.6569 1.43128 64 3.08813 64H61.0881C62.745 64 64.0881 62.6569 64.0881 61V3C64.0881 1.34315 62.745 0 61.0881 0Z" fill="#3178C6"/>
<path fill-rule="evenodd" clip-rule="evenodd" d="M37.2192 49.734V56.747C38.3554 57.331 39.6991 57.7695 41.2505 58.0615C42.8018 58.354 44.4369 58.5 46.1557 58.5C47.8309 58.5 49.4222 58.3395 50.9296 58.018C52.4376 57.6965 53.7591 57.167 54.8956 56.429C56.0316 55.691 56.9311 54.727 57.5941 53.536C58.2566 52.3455 58.5881 50.8735 58.5881 49.1203C58.5881 47.8493 58.3986 46.7353 58.0201 45.7783C57.6411 44.8214 57.0951 43.9704 56.3811 43.2252C55.6676 42.4801 54.8116 41.8117 53.8141 41.22C52.8161 40.6283 51.6911 40.0694 50.4381 39.5435C49.5205 39.1636 48.6975 38.7947 47.9692 38.4368C47.2409 38.0788 46.6218 37.7136 46.112 37.341C45.6022 36.9684 45.2089 36.574 44.9321 36.1576C44.6554 35.7413 44.517 35.27 44.517 34.7441C44.517 34.2619 44.6408 33.8273 44.8884 33.4402C45.1361 33.053 45.4857 32.7206 45.9372 32.443C46.3888 32.1655 46.9423 31.95 47.5978 31.7966C48.2533 31.6431 48.9816 31.5664 49.7827 31.5664C50.3656 31.5664 50.9806 31.6103 51.6291 31.6979C52.2771 31.7856 52.9291 31.9207 53.5846 32.1034C54.2401 32.286 54.8771 32.5161 55.4966 32.7937C56.1156 33.0713 56.6871 33.3927 57.2116 33.7579V27.2054C56.1481 26.7963 54.9866 26.4931 53.7266 26.2959C52.4666 26.0986 51.0211 26 49.3894 26C47.7289 26 46.1557 26.1789 44.6699 26.5369C43.1842 26.8948 41.8768 27.4537 40.7479 28.2134C39.619 28.9731 38.7268 29.941 38.0714 31.1171C37.4159 32.2932 37.0881 33.6995 37.0881 35.3358C37.0881 37.4251 37.689 39.2074 38.8907 40.683C40.0925 42.1587 41.9169 43.4079 44.364 44.4305C45.3254 44.825 46.2213 45.2122 47.0515 45.592C47.8818 45.9719 48.5992 46.3664 49.2037 46.7755C49.8082 47.1846 50.2851 47.6302 50.6346 48.1123C50.9846 48.5944 51.1591 49.1423 51.1591 49.7559C51.1591 50.209 51.0501 50.629 50.8316 51.016C50.6131 51.403 50.2816 51.739 49.8374 52.024C49.3931 52.309 48.8396 52.532 48.1768 52.6925C47.514 52.853 46.7384 52.9335 45.8498 52.9335C44.3349 52.9335 42.8346 52.667 41.3488 52.1335C39.863 51.6005 38.4865 50.8005 37.2192 49.734ZM25.4394 32.2772H34.5881V26.5H9.08813V32.2772H18.1921V58H25.4394V32.2772Z" fill="white"/>
</g>
<defs>
<clipPath id="clip0_408_824">
<rect width="64" height="64" fill="white" transform="translate(0.0881348)"/>
</clipPath>
</defs>
</svg>

<svg xmlns="http://www.w3.org/2000/svg" width="65" height="64" fill="none"><g clip-path="url(#a)"><path fill="#3178C6" d="M61.09 0h-58a3 3 0 0 0-3 3v58a3 3 0 0 0 3 3h58a3 3 0 0 0 3-3V3a3 3 0 0 0-3-3Z"/><path fill="#fff" fill-rule="evenodd" d="M37.22 49.73v7.02c1.14.58 2.48 1.02 4.03 1.31 1.55.3 3.19.44 4.9.44 1.68 0 3.27-.16 4.78-.48 1.5-.32 2.83-.85 3.97-1.6a8.09 8.09 0 0 0 2.7-2.88c.66-1.2.99-2.67.99-4.42 0-1.27-.2-2.38-.57-3.34a7.82 7.82 0 0 0-1.64-2.55 12 12 0 0 0-2.57-2.01c-1-.6-2.12-1.15-3.37-1.68-.92-.38-1.74-.75-2.47-1.1-.73-.36-1.35-.73-1.86-1.1-.5-.37-.9-.77-1.18-1.18a2.5 2.5 0 0 1-.41-1.42c0-.48.12-.91.37-1.3s.6-.72 1.05-1c.45-.27 1-.49 1.66-.64a9.6 9.6 0 0 1 2.18-.23 13.81 13.81 0 0 1 3.8.53c.66.19 1.3.42 1.92.7.62.27 1.19.6 1.71.96V27.2c-1.06-.41-2.22-.72-3.48-.91-1.26-.2-2.7-.3-4.34-.3-1.66 0-3.23.18-4.72.54-1.49.35-2.8.91-3.92 1.67a8.36 8.36 0 0 0-2.68 2.9 8.54 8.54 0 0 0-.98 4.23c0 2.09.6 3.87 1.8 5.34 1.2 1.48 3.03 2.73 5.47 3.75.97.4 1.86.78 2.7 1.16.82.38 1.54.78 2.14 1.19.6.4 1.09.85 1.43 1.33a2.73 2.73 0 0 1 .2 2.9c-.22.4-.55.73-1 1.01-.44.29-.99.51-1.65.67-.67.16-1.44.24-2.33.24a13.23 13.23 0 0 1-8.63-3.2ZM25.44 32.28h9.15V26.5H9.09v5.78h9.1V58h7.25V32.28Z" clip-rule="evenodd"/></g><defs><clipPath id="a"><path fill="#fff" d="M.09 0h64v64h-64z"/></clipPath></defs></svg>
